X: 195
T: Harry Schaefer's Varsoviana No 2
B: australian dance tunes
M:3/4
L:1/8
Q: 1/4=100
K:D
V:1 
AB||d2 d2 d2|d4 Ad|f2 f2 f2|f4 df|a2 a2 a2|b4 ge|c2 c2 c2|d4:|!
de||f2 A2 de|f2 A2 de|f2 g2 f2|e4 cd|e2 A2 cd|e2 A2 cd|e2 f2 e2|d4:|
% abcbook-tune_id 62a07850b09a9d42a98f807b


% abcbook-boost 0
% abcbook-tablature 
% abcbook-transpose 
% abcbook-lastupdated 1654683750282
% abcbook-soundfonts 
% abcbook-repeats 1


